!!!!SEGMENT: pl-lzu--m-15111--001-050_noskowski-zygmunt--spiewnik-dla-dzieci-op-34-50-dobranoc.krn
!!!cenid: 18xx:4747
!!!COM: Noskowski, Zygmunt
!!!COM-rismID: pe106604
!!!CDT: 1846/05/02-1909/07/23
!!!CNT: Polish
!!!GTL: Śpiewnik dla dzieci, op. 34
!!!OTL: 50. Dobranoc
!!!OMV: 050
!!!PDT: 1890
!!!AGN: Secular; Song; Children
!!!YEC: Copyright 2022 Narodowy Instytut Fryderyka Chopina (https://polishscores.org)
!!!YEM: License CC-BY-4.0 (https://creativecommons.org/licenses/by/4.0)
!!!SMS-siglum: PL-LŹu
!!!SMS-shelfmark: M 15111
!!!SMS-variant:
!!!SMS-altvar:
!!!SMS-shelfwork: 001-050 G
!!!NIFC-rismSourceID: 1001234040
!!!NIFC-rismChildID: 1001234040
!!!NIFC-islandoraID: pl-lzu:5455
!!!URL-pdf-islandora: https://repozytorium.nifc.pl/islandora/object/pl-lzu%3A5455/datastream/PDF/view
!!!URL-scan: https://polish.musicsources.pl/pl/lokalizacje/galeria/druki-muzyczne/23228/61 @EN{Scan on Polish Music Sources Website} @PL{Skany w portalu Dziedzictwo Muzyki Polskiej w otwartym dostępie}
!!!IIIF:
!!!ONB-nifc:
!!!AIN: 1 piano 1 vox
!!!key: E
!!!OMD: Andantino.
**kern	**kern	**dynam	**kern	**text	**dynam
*part2	*part2	*part2	*part1	*part1	*part1
*staff3	*staff2	*staff2/3	*staff1	*staff1	*staff1
*I"[Piano]	*I"[Piano]	*	*I"[Voice]	*	*
*I'pf	*I'pf	*	*I'V	*	*
*Ipiano	*Ipiano	*	*Ivox	*	*
*ICklav	*ICklav	*	*ICvox	*	*
*IGacmp	*IGacmp	*	*IGsolo	*	*
*clefF4	*clefG2	*	*clefG2	*	*
*k[f#c#g#d#]	*k[f#c#g#d#]	*	*k[f#c#g#d#]	*	*
*E:	*E:	*	*E:	*	*
*M4/4	*M4/4	*	*M4/4	*	*
*met(c)	*met(c)	*	*met(c)	*	*
=1	=1	=1	=1	=1	=1
!	!LO:TX:a:i:t=Spokojnie i śpiewnie.	!LO:DY:rj	!	!	!
1E 1EE	(8g#L 8e/	p	2r	.	.
.	8B/	.	.	.	.
.	8g# 8e/	.	.	.	.
.	8B/J	.	.	.	.
.	8g#L 8e/	.	4r	.	.
.	8B/	.	.	.	.
.	8g# 8e/	.	8r	.	.
.	8B/J)	.	8g# 8e/	Do-	.
=2	=2	=2	=2	=2	=2
!	!	!	!	!	!LO:DY:rj
1E 1EE	(8bL 8g#/	.	4b 4g#/	-bra-	p
.	8B/	.	.	.	.
.	8a 8f#/	.	8a 8f#/	-noc,	.
.	8g#J 8e/	.	8g# 8e/	ty	.
.	8bL 8g#/	.	4b 4g#/	wio-	.
.	8B/	.	.	.	.
.	8a 8f#/	.	8a 8f#,/	-sko,	.
.	8g#J 8e/)	.	8g# 8e/	Do-	.
=3	=3	=3	=3	=3	=3
1E 1EE	(8cc#L 8a/	.	4cc# 4a/	-bra-	.
.	8e/	.	.	.	.
.	8b 8g#/	.	8b 8g#/	-noc,	.
.	8aJ 8f#/	.	8a 8f#/	ko-	.
.	8eeL 8g#/	.	4ee 4g#/	-cha-	.
.	8e/	.	.	.	.
.	8b 8g#/	.	8b 8g#,/	-na!	.
.	8bJ 8e/)	.	8b 8e/	Oj	.
!!LO:LB:g=original
=4	=4	=4	=4	=4	=4
2BB 2BBB/	(8bL 8d#/	.	4b 4d#/	bę-	.
.	8B/	.	.	.	.
.	8f# 8d#/	.	8f# 8d#/	-dziesz	.
.	8bJ 8B/	.	8b 8d#/	ty	.
2C# 2CC#/	8bL 8e/	.	4b 4e/	spa-	.
.	8B/	.	.	.	.
.	8g# 8e/	.	4g# 4e,/	-ła	.
.	8B/J)	.	.	.	.
=5	=5	=5	=5	=5	=5
2FF#/	(8a#XL 8e/	.	8a#X 8e/	Do	.
.	8g#J 8A#X/	.	8g# 8e/	no-	.
.	8f#L 8e/	.	8f# 8e/	-we-	.
.	8cc#/J	.	8cc# 8e/	-go	.
2BB/	8bL 8d#/	.	4b 4d#/	ra-	.
.	8f#/	.	.	.	.
.	8b 8d#/	.	8b 8d#/	-na.	.
.	8B/J)	.	8r	.	.
=6	=6	=6	=6	=6	=6
4B 4BB\	(8f#L 8d#/	.	8f# 8d#/	Do	.
.	8f# 8d#/	.	8f# 8d#/	no-	.
8BL 8E\	8g# 8e/	.	8g# 8e/	-we-	.
8BJ 8C#\	8bJ 8g#/	.	8b 8g#/	-go	.
8BL 8D#\	8anL 8f#/	.	(8anL 8f#/	ra-	.
8BJ 8E\	8g# 8e/	.	8g#J 8e/)	.	.
8B 8BB\	8f# 8d#/	.	8f# 8d#,/	-na,	.
8r	8f#J 8d#/)	.	8f# 8d#/	Co	.
!!LO:PB:g=original
=7	=7	=7	=7	=7	=7
4.B 4.BB\	(8eL 8c#/	.	(8eL 8c#/	wzej-	.
.	8f# 8d#/	.	8f#J 8d#/)	.	.
.	8g# 8e/	<	8g# 8e/	-dzie	<
8B 8BB\	8aJ 8f#/)	.	8a 8f#/	na	.
2E\	(8cc#L 8a/	.	4cc# 4a/	nie-	.
.	8e/	[	.	.	[
.	8b 8g#/	.	4b 4g#/	-bie,	.
.	8e/J)	.	.	.	.
=8	=8	=8	=8	=8	=8
*^	*	*	*	*	*
!	!	!	!LO:DY:rj	!	!	!LO:DY:rj
4dn/	2E\	(8bL 8g#/	mf <	8b 8g#/	Kie-	mf <
.	.	8e/J	.	8b 8g#/	-dy	.
8c#/L	.	8cc#L 8a\	.	8cc# 8a\	no-	.
8A/J	.	8eeJ 8cc#\	.	8ee 8cc#\	-wa	.
8B/L	2E\	8ddnL 8b\	[	(8ddnL 8b\	wio-	[
8c#/J	.	8cc#J 8a\	.	8cc#J 8a\)	.	.
4d/	.	8bL 8g#/	.	4b 4g#,/	-sna	.
.	.	8e/J)	.	.	.	.
*v	*v	*	*	*	*	*
=9	=9	=9	=9	=9	=9
4A\	(8cc#L 8a/	.	8cc# 8a/	Znów	.
.	8b 8g#/	>	8b 8g#/	o-	>
4c#\	8a 8f#/	.	8a 8f#/	-bu-	.
.	8g#J 8e/)	.	8g# 8e/	-dzi	.
4BB/	(8f#L 8d#X/	.	4f# 4d#/	cie-	.
.	8c#/	]	.	.	]
4B\	8g# 8e/	.	8g# 8e/	-bie.	.
.	8aJ 8f#/)	.	8a 8f#/	Do-	.
!!LO:LB:g=original
=10	=10	=10	=10	=10	=10
!	!	!LO:DY:rj	!	!	!LO:DY:rj
2E\	(8bL 8g#/	pp	4b 4g#/	-bra-	pp
.	8B/	.	.	.	.
.	8a 8f#/	.	8a 8f#/	-noc,	.
.	8g#J 8e/	.	8g# 8e/	ty	.
2EE/	8bL 8g#/	.	4b 4g#/	wio-	.
.	8B/	.	.	.	.
.	8a 8f#/	.	8a 8f#,/	-sko,	.
.	8g#J 8e/)	.	8g# 8e/	Do-	.
=11	=11	=11	=11	=11	=11
1E 1EE	(8cc#L 8a/	.	4cc# 4a/	-bra-	.
.	8e/	.	.	.	.
.	8b 8g#/	.	8b 8g#/	-noc,	.
.	8aJ 8f#/	.	8a 8f#/	ko-	.
.	8eeL 8g#/	.	4ee 4g#/	-cha-	.
.	8e/	.	.	.	.
.	8b 8g#/	.	8b 8g#,/	-na!	.
.	8bJ 8e/)	.	8b 8e/	Oj	.
=12	=12	=12	=12	=12	=12
2BB 2BBB/	(8bL 8d#/	.	4b 4d#/	bę-	.
.	8B/	.	.	.	.
.	8f# 8d#/	.	8f# 8d#/	-dziesz	.
.	8bJ 8B/	.	8b 8d#/	ty	.
2C# 2CC#/	8bL 8e/	.	4b 4e/	spa-	.
.	8B/	.	.	.	.
.	8g# 8e/	.	4g# 4e,/	-ła	.
.	8B/J)	.	.	.	.
!!LO:LB:g=original
=13	=13	=13	=13	=13	=13
2FF#/	(8aL 8e/	.	8a 8e/	Do	.
!	!LO:TX:b:i:t=morendo	!	!LO:TX:a:i:t=morendo	!	!
.	8g# 8A/	.	8g# 8e/	no-	.
.	8f# 8e/	.	8f# 8e/	-we-	.
.	8cc#J 8e/	.	8cc# 8e/	-go	.
2BB 2BBB/	8bL 8d#/	.	2b 2d#/	ra-	.
.	8B/	.	.	.	.
.	8d# 8A/	.	.	.	.
.	8B/J)	.	.	.	.
=14	=14	=14	=14	=14	=14
*^	*	*	*^	*	*
(4BB/	2EE\	(8eL 8G#/	.	[1e	[1e	-na.	.
.	.	8B/	.	.	.	.	.
4FF#/)	.	8c# 8A/	.	.	.	.	.
.	.	8d#/J	.	.	.	.	.
(4BB/	2EE\	8eL 8G#/	.	.	.	.	.
.	.	8B/	.	.	.	.	.
4FF#/)	.	8c# 8A/	.	.	.	.	.
.	.	8d#/J)	.	.	.	.	.
*v	*v	*	*	*	*	*	*
=15	=15	=15	=15	=15	=15	=15
*ped	*	*	*	*	*	*
2BB 2EE/	2e 2G#/	.	2e/_	2e/_	.	.
*Xped	*	*	*	*	*	*
4BB 4EE;/	4e 4G#;/	.	4e;/]	4e/]	.	.
4r	4r	.	4r	4ryy	.	.
*	*	*	*v	*v	*	*
==	==	==	==	==	==
*-	*-	*-	*-	*-	*-
!!!system-decoration: p1{p2}
!!!RDF**kern: > = above
!!!RDF**kern: < = below
!!!ENC: Andrzej Gręziak
!!!END: 2025-03-07
!!!ENC: Marta Lawrence
!!!END: 2025-03-25
